X: 12936
T: Fiddler's Chair, The
R: reel
M: 4/4
K: Gmajor
B2A>d B<GG2|D>EF>G A>B (3cBA|G<EE>D E2D>E|1 G>BA<F G2G>A:|2 G>BA<F G2B>d||
e>de>f g>a (3gfe|g>a (3gfe d<BB>A|G<EE>D E2D>E|G>BA<F G2B>d|
e>de>f g>a (3gfe|g>a (3gfe d<BB>a|(3bag (3agf (3gfe d2|(3efg a>f g>ed>c||
B2Ad BG~G2|DEFG ABcA|GEED E2DE|1 GBAF GDGA:|2 GBAF GABd||
~e3f gage|gage dB~B2|GEED E2DE|GBAF GABd|
edef ~g3e|gage dB~B2|degb a2ga|bgaf gedc||

